X:345
T: Crane's Leg
N: Possibly a Larry Redican tune.
M: 4/4
L: 1/8
S: B.Flaherty
Z: B.Black
R: reel
K: Edor
B2 AF BFAF | E2 FD EDB,D | B2 AF BFAF | FEDE FE E2 |
B2 AF BFAF | E2 FD EDB,A, | B,E E2 DEFA | BdAF FE E2 :|
eB B2 egfe | d2 fd adfd | eB B2 egfe | dBAF FE E2 |
eB B2 egfe | d2 fd adfd | B2 Bd egfe | dBAF FE E2 :|
